assets/icons/vk.svg

<svg width="24" height="25" viewBox="0 0 24 25" fill="none" xmlns="http://www.w3.org/2000/svg">
<path fill-rule="evenodd" clip-rule="evenodd" d="M12.9345 19.4164C5.76151 19.4164 1.672 14.3486 1.50002 5.91638H5.09337C5.21056 12.1057 7.86029 14.7282 9.96364 15.2678V5.91638H13.3469V11.2493C15.4183 11.0203 17.5962 8.58281 18.3298 5.91638H21.7132C21.4365 7.30396 20.885 8.61779 20.0931 9.77561C19.3011 10.9334 18.2858 11.9104 17.1107 12.6452C18.4224 13.3172 19.581 14.2681 20.5099 15.4352C21.4389 16.6024 22.1172 17.9593 22.5 19.4164H18.7758C18.432 18.1509 17.7335 17.018 16.7678 16.1598C15.8021 15.3016 14.6121 14.7561 13.3469 14.5917V19.4164H12.9345Z" fill="white"/>
</svg>

<svg xmlns="http://www.w3.org/2000/svg" width="24" height="25" fill="none" viewBox="0 0 24 25"><path fill="#fff" fill-rule="evenodd" d="M12.935 19.416c-7.173 0-11.263-5.067-11.435-13.5h3.593c.118 6.19 2.767 8.812 4.87 9.352V5.916h3.384v5.333c2.071-.229 4.25-2.666 4.983-5.333h3.383a10.5 10.5 0 0 1-1.62 3.86 10.1 10.1 0 0 1-2.982 2.87 10.4 10.4 0 0 1 3.399 2.79 10.8 10.8 0 0 1 1.99 3.98h-3.724a6.7 6.7 0 0 0-2.008-3.256 6.4 6.4 0 0 0-3.421-1.568v4.824z" clip-rule="evenodd"/></svg>
